X: 33500
T: Railway Station, The
R: reel
M: 4/4
K: Bminor
|:BFDF Bdcd|BFDF B2 BA|BFDF Bdcd|e3 d e2 AG|
fdAF fggf|ecAG effe|fedc BAFE|ffec B2 BA:|
|:fbba bged|fbba bc'ba|f2 ab afed|deed e3 d|
f2 ab afed|deed efde|fafe fedB|ffec B2 BA:|
|:Bffe ffed|ffed eedc|B2 fe ffef|bffe d2 fe|
dfed dfaf|ce e2 cege|fggf gfed|g2 gf edBA:|

